; HEADER_BLOCK_START
; generated by OrcaSlicer 2.3.2 on 2026-05-10 at 16:02:58
; total layer number: 9
; filament_density: 1.24,1.24,1.24,1.24
; filament_diameter: 1.75,1.75,1.75,1.75
; max_z_height: 0.84
; filament: 1,3,4,2
; HEADER_BLOCK_END

; THUMBNAIL_BLOCK_START

;
; THUMBNAIL_BLOCK_END

; THUMBNAIL_BLOCK_START

;
; THUMBNAIL_BLOCK_END

; external perimeters extrusion width = 0.42mm
; perimeters extrusion width = 0.45mm
; infill extrusion width = 0.45mm
; solid infill extrusion width = 0.42mm
; top infill extrusion width = 0.42mm
; first layer extrusion width = 0.50mm

; external perimeters extrusion width = 0.42mm
; perimeters extrusion width = 0.45mm
; infill extrusion width = 0.45mm
; solid infill extrusion width = 0.42mm
; top infill extrusion width = 0.42mm
; first layer extrusion width = 0.50mm

; external perimeters extrusion width = 0.42mm
; perimeters extrusion width = 0.45mm
; infill extrusion width = 0.45mm
; solid infill extrusion width = 0.42mm
; top infill extrusion width = 0.42mm
; first layer extrusion width = 0.50mm

; external perimeters extrusion width = 0.42mm
; perimeters extrusion width = 0.45mm
; infill extrusion width = 0.45mm
; solid infill extrusion width = 0.42mm
; top infill extrusion width = 0.42mm
; first layer extrusion width = 0.50mm

; EXECUTABLE_BLOCK_START
EXCLUDE_OBJECT_DEFINE NAME=4_COLOR_RING_id_0_copy_0 CENTER=134.568,136.978 POLYGON=[[124.567,136.975],[124.615,135.997],[124.759,135.026],[124.997,134.074],[125.328,133.15],[125.748,132.263],[126.252,131.421],[126.837,130.633],[127.496,129.906],[128.223,129.247],[129.011,128.662],[129.853,128.158],[130.74,127.738],[131.664,127.407],[132.616,127.169],[133.587,127.025],[134.555,126.978],[134.57,126.977],[135.548,127.025],[136.518,127.169],[137.47,127.407],[138.394,127.738],[139.282,128.158],[140.123,128.662],[140.912,129.247],[141.639,129.906],[142.298,130.633],[142.883,131.421],[143.387,132.263],[143.807,133.15],[144.137,134.074],[144.376,135.026],[144.52,135.997],[144.568,136.975],[144.567,136.99],[144.52,137.958],[144.376,138.928],[144.137,139.88],[143.807,140.804],[143.387,141.692],[142.883,142.533],[142.298,143.322],[141.639,144.049],[140.912,144.708],[140.123,145.293],[139.282,145.797],[138.394,146.217],[137.47,146.547],[136.518,146.786],[135.548,146.93],[134.57,146.978],[134.555,146.978],[133.587,146.93],[132.616,146.786],[131.664,146.547],[130.74,146.217],[129.853,145.797],[129.011,145.293],[128.223,144.708],[127.496,144.049],[126.837,143.322],[126.252,142.533],[125.748,141.692],[125.328,140.804],[124.997,139.88],[124.759,138.928],[124.615,137.958],[124.568,136.99],[124.567,136.975]]
M73 P0 R11
M106 S0
M106 P2 S0
;TYPE:Custom
SET_PRINT_AUTO_BED_LEVELING ENABLE=1
SET_TIME_LAPSE_CAMERA ENABLE=1
;===== date: 20251222 =====================

PRINT_START
DEFECT_DETECTION_START
SET_PRINT_STATS_INFO TOTAL_LAYER=9
SET_PRINT_STATS_INFO CURRENT_LAYER=0
TIMELAPSE_START
M140 S55
M104 T1 S140
M204 S10000

G28 X Y
;===== 床面异物检测 ========
T1
G90
DEFECT_DETECTION_DETECT_BED
;===== 取放头检测 =================
SM_PRINT_CHECK_SWITCH_EXTRUDER

;===== 自动进料 & 挤出流量 & 预挤出 ======================
SM_PRINT_EXTRUDER_PREHEAT EXTRUDER=1 TEMP=140
SM_PRINT_AUTO_FEED EXTRUDER=0
SM_PRINT_FLOW_CALIBRATE EXTRUDER=0
SM_PRINT_EXTRUDER_PREHEAT EXTRUDER=2 TEMP=140
SM_PRINT_AUTO_FEED EXTRUDER=1
SM_PRINT_FLOW_CALIBRATE EXTRUDER=1
SM_PRINT_EXTRUDER_PREHEAT EXTRUDER=3 TEMP=140
SM_PRINT_AUTO_FEED EXTRUDER=2
SM_PRINT_FLOW_CALIBRATE EXTRUDER=2
SM_PRINT_AUTO_FEED EXTRUDER=3
SM_PRINT_FLOW_CALIBRATE EXTRUDER=3
M104 S0 T0 A0
M104 S0 T1 A0
M104 S0 T2 A0
M104 S0 T3 A0
M104 T1 S130

;===== 粗回零 =================
T1
M106 S255
M106 P2 S0
MOVE_TO_DISCARD_FILAMENT_POSITION
M109 T1 S130
ROUGHLY_CLEAN_NOZZLE_WITH_DISCARD
MOVE_TO_XY_IDLE_POSITION_EXTRUDER
G28 Z I140 J140

;===== 检测钢板 =================
DETECT_BED_PLATE

;===== 深度清洁喷嘴 =================
G90
G0 Z5 F10000
MOVE_TO_DISCARD_FILAMENT_POSITION
M109 S170
ROUGHLY_CLEAN_NOZZLE
MOVE_TO_XY_IDLE_POSITION_EXTRUDER
FINELY_CLEAN_NOZZLE_STAGE_1
M104 S130
G0 Z5 F10000
M73 P0 R10
MOVE_TO_DISCARD_FILAMENT_POSITION
ROUGHLY_CLEAN_NOZZLE
MOVE_TO_XY_IDLE_POSITION_EXTRUDER
FINELY_CLEAN_NOZZLE_STAGE_2

;===== 精回零 =================
M106 S255
M109 S130
M190 S55
M107 P2
G90
G0 Z5 F10000
G28 Z

;===== 热床调平 =================
; Always pass `ADAPTIVE_MARGIN=0` because Orca has already handled `adaptive_bed_mesh_margin` internally
; Make sure to set ADAPTIVE to 0 otherwise Klipper will use it's own adaptive bed mesh logic
BED_MESH_CALIBRATE mesh_min=122.569,124.98 mesh_max=220.836,221.495 ALGORITHM=bicubic PROBE_COUNT=4,4 ADAPTIVE=0 ADAPTIVE_MARGIN=0
; Original upstream: BED_MESH_CALIBRATE PROBE_COUNT=11,11

;===== 画起始线 =================
G90
G1 Z1.5
G0 X10 Y3 Z2 F18000
M109 S220
G1 Z0.2
M83
G1 X110 E15 F360
G1 Z1.5
M73 P2 R10

G90
M106 S0
G90
G21
M83 ; use relative distances for extrusion
;===== date: 20251213=====================
; Change Tool1 -> Tool1 (layer -1)
G91
G1 Z1.5 F1800
G90
G1 F21000
M400
T1
G90

;_FORCE_RESUME_FAN_SPEED
; Filament gcode
M109 S220 T1 ; set nozzle temperature and wait for it to be reached
G1 Z.2 F30000
M106 S0
M106 P2 S0
;LAYER_CHANGE
;Z:0.2
;HEIGHT:0.2
;BEFORE_LAYER_CHANGE
;0.2
G92 E0
TIMELAPSE_TAKE_FRAME
DEFECT_DETECTION_DETECT
;AFTER_LAYER_CHANGE
;0.2
SET_PRINT_STATS_INFO TOTAL_LAYER=9
SET_PRINT_STATS_INFO CURRENT_LAYER=1
;_SET_FAN_SPEED_CHANGING_LAYER
SET_VELOCITY_LIMIT ACCEL=500 ACCEL_TO_DECEL=250
; printing object 4_COLOR_RING id:0 copy 0
G1 E-.8 F2400
EXCLUDE_OBJECT_START NAME=4_COLOR_RING_id_0_copy_0
G1 X135.299 Y131.149 F30000
G1 Z.6
G1 Z.2
G1 E.8 F2100
;TYPE:Inner wall
;WIDTH:0.499999
;HEIGHT:0.2
G1 F3000
G1 X135.299 Y127.893 E.12128
G1 X135.469 Y127.902 E.00636
G1 X136.388 Y128.042 E.03463
G1 X137.463 Y128.338 E.04152
G3 X143.653 Y136.247 I-2.896 J8.643 E.39616
G1 X140.379 Y136.247 E.12193
G1 X140.326 Y135.797 E.01687
G2 X136.241 Y131.342 I-5.797 J1.216 E.23624
M73 P3 R10
G1 X135.338 Y131.157 E.03436
G1 X134.82 Y131.589 F30000
;TYPE:Outer wall
G1 F3000
G1 X134.82 Y127.39 E.1564
G1 X135.539 Y127.428 E.02683
G1 X136.504 Y127.578 E.03637
G1 X137.624 Y127.887 E.04328
G3 X144.123 Y136.067 I-3.085 J9.122 E.41128
G1 X144.155 Y136.725 E.02454
G1 X139.946 Y136.725 E.15677
G1 X139.862 Y135.914 E.03039
G2 X134.86 Y131.591 I-5.303 J1.081 E.26489
;WIPE_START
G1 X134.841 Y129.591 E-.8
;WIPE_END
G1 X142.049 Y132.101 Z.6 F30000
G1 X142.121 Y132.126 Z.6
G1 Z.2
G1 E.8 F2100
;TYPE:Bottom surface
;WIDTH:0.512248
G1 F6300
G1 X140.685 Y130.69 E.07767
G2 X138.445 Y129.113 I-5.755 J5.798 E.10528
G1 X142.432 Y133.101 E.21568
G3 X142.895 Y134.227 I-5.426 J2.886 E.04663
G1 X137.318 Y128.65 E.30164
G1 X137.115 Y128.577 E.00822
G1 X136.407 Y128.403 E.0279
G1 X143.146 Y135.142 E.36448
G1 X143.271 Y135.904 E.02954
G1 X143.244 Y135.904 E.00105
G1 X135.641 Y128.301 E.4112
G1 X135.641 Y128.965 E.02538
G1 X142.58 Y135.904 E.3753
G1 X141.917 Y135.904 E.02538
G1 X140.051 Y134.038 E.10092
G2 X137.506 Y131.493 I-5.491 J2.947 E.1396
G1 X135.641 Y129.629 E.10086
G1 X135.641 Y130.292 E.02538
G1 X136.712 Y131.363 E.05788
G1 E-.0381 F2400
;WIPE_START
G1 F6300
G1 X135.641 Y130.292 E-.57658
G1 X135.641 Y129.806 E-.18532
;WIPE_END
G1 X140.182 Y134.833 Z.6 F30000
G1 Z.2
G1 E.8 F2100
G1 F6300
G1 X141.459 Y136.11 E.06904
; stop printing object 4_COLOR_RING id:0 copy 0
;HEIGHT:0.2
;TYPE:Prime tower
;WIDTH:0.5
;--------------------
; CP TOOLCHANGE START
; toolchange #1
; material : PLA -> PLA
;--------------------
; WIPE_TOWER_START
M220 S100
; CP TOOLCHANGE UNLOAD
;WIDTH:1
;WIDTH:0.5
G4 S0
G1 E-9.31233 F2400
;WIPE_START
G1 F6300
G1 X140.182 Y134.833 E-.68767
;WIPE_END
; filament end gcode
M104 S70 T1 ; set nozzle temperature ;cooldown
G17
G3 Z.6 I1.217 J0 P1  F30000
M73 P4 R10
;===== date: 20251213=====================
; Change Tool1 -> Tool0 (layer 0)
G91
G1 Z1.5 F1800
G90
G1 F21000

; 0
M109 S220 T0
M400
T0
SM_PRINT_PREEXTRUDE_FILAMENT INDEX=0
G90

M106 P2 S0
M106 S0
; Filament gcode
M109 S220 T0 ; set nozzle temperature and wait for it to be reached

G1  X213.363 Y213.986 F30000
G1  X212.863 Y212.736  
G1 Z.2
G4 S0
G1  Y213.236 
; CP TOOLCHANGE WIPE
;WIDTH:0.5
G1  X178.863  E1.2922 F990
G1  X179.613 Y212.736   E0.0343
G1  X213.363  E1.2827 F1125
M73 P5 R10
G1  X212.613 Y212.236   E0.0343
G1  X179.613  E1.2542 F1374
G1  Y211.736  E0.0190
G1  X212.613  E1.2542 F2625
;WIDTH:0.5
; WIPE_TOWER_END
G1 F30000
G4 S0
G92 E0
; CP TOOLCHANGE END
;------------------


G1  X179.113 Y180.736   F7200
;HEIGHT:0.2
;TYPE:Prime tower
;WIDTH:0.5
G1  X213.113  E1.2922 F3000
G1  Y201.236  E0.7791
G1  X179.113  E1.2922
G1  Y180.736  E0.7791
M73 P6 R10
G1  X213.113 
G1  Y201.236 
G1  X212.113 
;--------------------
; CP EMPTY GRID START
; layer #1
G1  Y200.736  E0.0190
G1  X179.613  E1.2352
G1  Y200.236  E0.0190
G1  X212.613  E1.2542
G1  Y199.736  E0.0190
G1  X179.613  E1.2542
G1  Y199.236  E0.0190
G1  X212.613  E1.2542
G1  Y198.736  E0.0190
G1  X179.613  E1.2542
G1  Y198.236  E0.0190
G1  X212.613  E1.2542
G1  Y197.736  E0.0190
G1  X179.613  E1.2542
G1  Y197.236  E0.0190
M73 P7 R10
G1  X212.613  E1.2542
G1  Y196.736  E0.0190
G1  X179.613  E1.2542
G1  Y196.236  E0.0190
G1  X212.613  E1.2542
G1  Y195.736  E0.0190
G1  X179.613  E1.2542
G1  Y195.236  E0.0190
G1  X212.613  E1.2542
G1  Y194.736  E0.0190
G1  X179.613  E1.2542
G1  Y194.236  E0.0190
G1  X212.613  E1.2542
G1  Y193.736  E0.0190
G1  X179.613  E1.2542
G1  Y193.236  E0.0190
M73 P8 R10
G1  X212.613  E1.2542
G1  Y192.736  E0.0190
G1  X179.613  E1.2542
G1  Y192.236  E0.0190
G1  X212.613  E1.2542
G1  Y191.736  E0.0190
G1  X179.613  E1.2542
G1  Y191.236  E0.0190
G1  X212.613  E1.2542
G1  Y190.736  E0.0190
G1  X179.613  E1.2542
G1  Y190.236  E0.0190
G1  X212.613  E1.2542
G1  Y189.736  E0.0190
G1  X179.613  E1.2542
G1  Y189.236  E0.0190
G1  X212.613  E1.2542
G1  Y188.736  E0.0190
M73 P9 R10
G1  X179.613  E1.2542
G1  Y188.236  E0.0190
M73 P9 R9
G1  X212.613  E1.2542
G1  Y187.736  E0.0190
G1  X179.613  E1.2542
G1  Y187.236  E0.0190
G1  X212.613  E1.2542
G1  Y186.736  E0.0190
G1  X179.613  E1.2542
G1  Y186.236  E0.0190
G1  X212.613  E1.2542
G1  Y185.736  E0.0190
G1  X179.613  E1.2542
G1  Y185.236  E0.0190
G1  X212.613  E1.2542
G1  Y184.736  E0.0190
G1  X179.613  E1.2542
M73 P10 R9
G1  Y184.236  E0.0190
G1  X212.613  E1.2542
G1  Y183.736  E0.0190
G1  X179.613  E1.2542
G1  Y183.236  E0.0190
G1  X212.613  E1.2542
G1  Y182.736  E0.0190
G1  X179.613  E1.2542
G1  Y182.236  E0.0190
G1  X212.613  E1.2542
G1  Y181.736  E0.0190
G1  X179.613  E1.2542
G1  Y181.236  E0.0190
G1  X212.613  E1.2542
G1  Y180.736  E0.0190
; CP EMPTY GRID END
;------------------






G1  X213.613 Y180.236  
G1 E0.0000
G1  X215.111 Y181.778   E0.0817
G1  X215.208 Y181.886   E0.0055
G1  X215.296 Y182.001   E0.0055
G1  X215.375 Y182.123   E0.0055
G1  X215.444 Y182.251   E0.0055
G1  X215.503 Y182.384   E0.0055
G1  X215.552 Y182.521   E0.0055
G1  X215.589 Y182.661   E0.0055
G1  X215.615 Y182.804   E0.0055
G1  X215.630 Y182.949   E0.0055
G1  X215.634 Y183.094   E0.0055
G1  X215.626 Y183.239   E0.0055
G1  X215.607 Y183.383   E0.0055
G1  X215.576 Y183.525   E0.0055
G1  X215.535 Y183.664   E0.0055
G1  X215.483 Y183.800   E0.0055
G1  X215.420 Y183.931   E0.0055
G1  X215.347 Y184.057   E0.0055
G1  X215.265 Y184.176   E0.0055
G1  X215.173 Y184.289   E0.0055
G1  X215.073 Y184.394   E0.0055
G1  X214.940 Y184.523   E0.0070
G1  X214.817 Y184.648   E0.0067
G1  X214.699 Y184.777   E0.0067
G1  X214.586 Y184.911   E0.0067
G1  X214.479 Y185.049   E0.0067
G1  X214.377 Y185.192   E0.0067
G1  X214.281 Y185.338   E0.0067
G1  X214.191 Y185.488   E0.0067
G1  X214.108 Y185.642   E0.0067
G1  X214.030 Y185.799   E0.0067
G1  X213.958 Y185.959   E0.0067
G1  X213.894 Y186.121   E0.0067
G1  X213.835 Y186.286   E0.0067
G1  X213.783 Y186.453   E0.0067
G1  X213.738 Y186.623   E0.0067
G1  X213.700 Y186.793   E0.0067
G1  X213.669 Y186.966   E0.0067
G1  X213.644 Y187.139   E0.0067
G1  X213.627 Y187.313   E0.0067
G1  X213.617 Y187.488   E0.0067
G1  X213.613 Y187.663   E0.0067
G1  Y206.809  E0.7277
G1  X213.617 Y206.984   E0.0067
M73 P11 R9
G1  X213.627 Y207.159   E0.0067
G1  X213.644 Y207.333   E0.0067
G1  X213.669 Y207.506   E0.0067
G1  X213.700 Y207.679   E0.0067
G1  X213.738 Y207.849   E0.0067
G1  X213.783 Y208.019   E0.0067
G1  X213.835 Y208.186   E0.0067
G1  X213.894 Y208.351   E0.0067
G1  X213.958 Y208.513   E0.0067
G1  X214.030 Y208.673   E0.0067
G1  X214.108 Y208.830   E0.0067
G1  X214.191 Y208.984   E0.0067
G1  X214.281 Y209.134   E0.0067
G1  X214.377 Y209.280   E0.0067
G1  X214.479 Y209.423   E0.0067
G1  X214.586 Y209.561   E0.0067
G1  X214.699 Y209.695   E0.0067
G1  X214.817 Y209.824   E0.0067
G1  X214.940 Y209.949   E0.0067
G1  X215.073 Y210.078   E0.0070
G1  X215.173 Y210.183   E0.0055
G1  X215.265 Y210.296   E0.0055
G1  X215.347 Y210.415   E0.0055
G1  X215.420 Y210.541   E0.0055
G1  X215.483 Y210.672   E0.0055
G1  X215.535 Y210.808   E0.0055
G1  X215.576 Y210.947   E0.0055
G1  X215.607 Y211.089   E0.0055
G1  X215.626 Y211.233   E0.0055
G1  X215.634 Y211.378   E0.0055
G1  X215.630 Y211.523   E0.0055
G1  X215.615 Y211.668   E0.0055
G1  X215.589 Y211.811   E0.0055
G1  X215.552 Y211.951   E0.0055
G1  X215.503 Y212.088   E0.0055
G1  X215.444 Y212.221   E0.0055
G1  X215.375 Y212.349   E0.0055
G1  X215.296 Y212.471   E0.0055
G1  X215.208 Y212.586   E0.0055
G1  X215.111 Y212.694   E0.0055
G1  X213.613 Y214.236   E0.0817
G1 E0.0000
G1 E0.0000
G1  X212.192 Y215.699   E0.0775
G1  X212.081 Y215.805   E0.0059
G1  X211.961 Y215.902   E0.0059
G1  X211.834 Y215.989   E0.0059
G1  X211.701 Y216.066   E0.0059
G1  X211.562 Y216.133   E0.0059
G1  X211.419 Y216.188   E0.0059
G1  X211.271 Y216.232   E0.0059
G1  X211.120 Y216.264   E0.0059
G1  X210.968 Y216.285   E0.0059
G1  X210.814 Y216.293   E0.0059
G1  X210.660 Y216.289   E0.0059
G1  X210.507 Y216.273   E0.0059
G1  X210.356 Y216.245   E0.0059
G1  X210.207 Y216.206   E0.0059
G1  X210.062 Y216.155   E0.0059
G1  X209.921 Y216.092   E0.0059
G1  X209.786 Y216.019   E0.0059
G1  X209.656 Y215.935   E0.0059
G1  X209.534 Y215.842   E0.0059
G1  X209.419 Y215.739   E0.0059
G1  X209.279 Y215.602   E0.0075
G1  X209.143 Y215.475   E0.0071
G1  X209.002 Y215.353   E0.0071
G1  X208.856 Y215.237   E0.0071
G1  X208.707 Y215.126   E0.0071
G1  X208.553 Y215.021   E0.0071
G1  X208.395 Y214.923   E0.0071
G1  X208.233 Y214.830   E0.0071
G1  X208.068 Y214.744   E0.0071
G1  X207.900 Y214.664   E0.0071
G1  X207.728 Y214.591   E0.0071
G1  X207.555 Y214.524   E0.0071
G1  X207.378 Y214.464   E0.0071
G1  X207.200 Y214.411   E0.0071
G1  X207.019 Y214.365   E0.0071
G1  X206.837 Y214.325   E0.0071
G1  X206.654 Y214.293   E0.0071
G1  X206.469 Y214.268   E0.0071
G1  X206.284 Y214.250   E0.0071
G1  X206.098 Y214.240   E0.0071
G1  X205.912 Y214.236   E0.0071
G1  X186.314  E0.7448
G1  X186.128 Y214.240   E0.0071
G1  X185.942 Y214.250   E0.0071
G1  X185.757 Y214.268   E0.0071
G1  X185.572 Y214.293   E0.0071
G1  X185.389 Y214.325   E0.0071
G1  X185.207 Y214.365   E0.0071
G1  X185.026 Y214.411   E0.0071
G1  X184.848 Y214.464   E0.0071
G1  X184.671 Y214.524   E0.0071
G1  X184.498 Y214.591   E0.0071
G1  X184.326 Y214.664   E0.0071
G1  X184.158 Y214.744   E0.0071
G1  X183.993 Y214.830   E0.0071
G1  X183.831 Y214.923   E0.0071
G1  X183.673 Y215.021   E0.0071
G1  X183.519 Y215.126   E0.0071
G1  X183.370 Y215.237   E0.0071
G1  X183.224 Y215.353   E0.0071
G1  X183.083 Y215.475   E0.0071
G1  X182.947 Y215.602   E0.0071
G1  X182.807 Y215.739   E0.0075
G1  X182.692 Y215.842   E0.0059
G1  X182.570 Y215.935   E0.0059
G1  X182.440 Y216.019   E0.0059
G1  X182.305 Y216.092   E0.0059
G1  X182.164 Y216.155   E0.0059
G1  X182.019 Y216.206   E0.0059
G1  X181.870 Y216.245   E0.0059
G1  X181.719 Y216.273   E0.0059
G1  X181.566 Y216.289   E0.0059
G1  X181.412 Y216.293   E0.0059
G1  X181.258 Y216.285   E0.0059
G1  X181.106 Y216.264   E0.0059
G1  X180.955 Y216.232   E0.0059
G1  X180.807 Y216.188   E0.0059
G1  X180.664 Y216.133   E0.0059
G1  X180.525 Y216.066   E0.0059
G1  X180.392 Y215.989   E0.0059
G1  X180.265 Y215.902   E0.0059
G1  X180.145 Y215.805   E0.0059
G1  X180.034 Y215.699   E0.0059
